X: 682
M: C
L: 1/8
K: Edor
V: 1
EB (d/c/B/A/) dDAF | EB-BA BEBA |\
(B/c/d) (d/e/f) dDAF | EB-BA BEE :|\
|: f |\
gebe (a/g/f/e/) df |
gebe bege |\
gebe (a/g/f/e/) df | gebe gebe |\
(d/e/f/g/) (a/g/f/e/) dDAF | EB-BA BEE :|
V: 2 clef=bass middle=d
z |\
e2e2 d2d2 | e2e2 e2e2 |\
e2e2 d2d2 | e2e2 e2e :|\
|: z |\
e2e2 d2d2
e2e2 e2e2 |\
e2e2 d2d2 | e2e2 e2e2 |\
d2d2 d2d2 | e2e2 e2e :|

